images_breeze_svg/cmd/lc_bezier_unfilled.svg

<svg viewBox="0 0 24 24" xmlns="http://www.w3.org/2000/svg"><path d="m19 7a13 13 0 0 0 -13 13h1a12 12 0 0 1 12-12 12 12 0 0 1 1 .0507812v-1.0078124a13 13 0 0 0 -1-.0429688z" fill="#4d4d4d"/><path d="m5 5v3h3v-.9570312h12v-1.0429688h-12v-1zm1 1h1v1h-1z" fill="#1d99f3"/></svg>

<?xml version="1.0" encoding="UTF-8" standalone="no"?>
<svg
   xmlns:dc="http://purl.org/dc/elements/1.1/"
   xmlns:cc="http://creativecommons.org/ns#"
   xmlns:rdf="http://www.w3.org/1999/02/22-rdf-syntax-ns#"
   xmlns:svg="http://www.w3.org/2000/svg"
   xmlns="http://www.w3.org/2000/svg"
   xmlns:sodipodi="http://sodipodi.sourceforge.net/DTD/sodipodi-0.dtd"
   xmlns:inkscape="http://www.inkscape.org/namespaces/inkscape"
   viewBox="0 0 24 24"
   version="1.1"
   id="svg4"
   sodipodi:docname="lc_bezier_unfilled.svg"
   inkscape:version="0.92.4 (unknown)"
   inkscape:export-filename="/home/rizmut/Dokumen/Rizmut/Github/libreoffice-style-breeze/images_breeze/cmd/lc_bezier_unfilled.png"
   inkscape:export-xdpi="96"
   inkscape:export-ydpi="96">
  <metadata
     id="metadata10">
    <rdf:RDF>
      <cc:Work
         rdf:about="">
        <dc:format>image/svg+xml</dc:format>
        <dc:type
           rdf:resource="http://purl.org/dc/dcmitype/StillImage" />
      </cc:Work>
    </rdf:RDF>
  </metadata>
  <defs
     id="defs8" />
  <sodipodi:namedview
     pagecolor="#ffffff"
     bordercolor="#666666"
     borderopacity="1"
     objecttolerance="10"
     gridtolerance="10"
     guidetolerance="10"
     inkscape:pageopacity="0"
     inkscape:pageshadow="2"
     inkscape:window-width="1360"
     inkscape:window-height="714"
     id="namedview6"
     showgrid="true"
     inkscape:zoom="13.906433"
     inkscape:cx="15.612997"
     inkscape:cy="8.3173788"
     inkscape:window-x="0"
     inkscape:window-y="28"
     inkscape:window-maximized="1"
     inkscape:current-layer="svg4">
    <inkscape:grid
       type="xygrid"
       id="grid817" />
  </sodipodi:namedview>
  <path
     style="opacity:1;fill:#4d4d4d;fill-opacity:1;stroke:none;stroke-width:1.62899995;stroke-linecap:round;stroke-linejoin:round;stroke-miterlimit:4;stroke-dasharray:none;stroke-opacity:1"
     d="M 19,7 A 13,13 0 0 0 6,20 H 7 A 12,12 0 0 1 19,8 12,12 0 0 1 20,8.0507812 V 7.0429688 A 13,13 0 0 0 19,7 Z"
     id="path819"
     inkscape:connector-curvature="0" />
  <path
     style="opacity:1;fill:#1d99f3;fill-opacity:1;stroke:none;stroke-width:1.62899995;stroke-linecap:round;stroke-linejoin:round;stroke-miterlimit:4;stroke-dasharray:none;stroke-opacity:1"
     d="M 5 5 L 5 8 L 8 8 L 8 7.0429688 L 20 7.0429688 L 20 6 L 8 6 L 8 5 L 5 5 z M 6 6 L 7 6 L 7 7 L 6 7 L 6 6 z "
     id="rect830" />
</svg>
